dataset/sigil/icon.svg

<?xml version="1.0" encoding="UTF-8" standalone="no"?>
<svg
   height="128px"
   viewBox="0 0 128 128"
   width="128px"
   version="1.1"
   id="svg286"
   xml:space="preserve"
   xmlns:xlink="http://www.w3.org/1999/xlink"
   xmlns="http://www.w3.org/2000/svg"
   xmlns:svg="http://www.w3.org/2000/svg"><defs
     id="defs290"><linearGradient
       id="linearGradient84"><stop
         style="stop-color:#002c33;stop-opacity:1;"
         offset="0.03"
         id="stop76" /><stop
         style="stop-color:#008499;stop-opacity:1;"
         offset="0.06"
         id="stop77" /><stop
         style="stop-color:#002c33;stop-opacity:1;"
         offset="0.11"
         id="stop78" /></linearGradient><linearGradient
       id="linearGradient75"><stop
         style="stop-color:#002c33;stop-opacity:1;"
         offset="0.31"
         id="stop70" /><stop
         style="stop-color:#008499;stop-opacity:1;"
         offset="0.61000001"
         id="stop71" /><stop
         style="stop-color:#002c33;stop-opacity:1;"
         offset="0.81"
         id="stop72" /><stop
         style="stop-color:#002c33;stop-opacity:1;"
         offset="0.86000001"
         id="stop73" /><stop
         style="stop-color:#008499;stop-opacity:1;"
         offset="0.95999998"
         id="stop74" /><stop
         style="stop-color:#002c33;stop-opacity:1;"
         offset="1"
         id="stop75" /></linearGradient><linearGradient
       id="linearGradient66"><stop
         style="stop-color:#002c33;stop-opacity:1;"
         offset="0.28"
         id="stop61" /><stop
         style="stop-color:#008499;stop-opacity:1;"
         offset="0.38"
         id="stop62" /><stop
         style="stop-color:#002c33;stop-opacity:1;"
         offset="0.50999999"
         id="stop63" /></linearGradient><linearGradient
       id="linearGradient57"><stop
         style="stop-color:#002c33;stop-opacity:1;"
         offset="0.74000001"
         id="stop55" /><stop
         style="stop-color:#008499;stop-opacity:1;"
         offset="0.77999997"
         id="stop56" /><stop
         style="stop-color:#002c33;stop-opacity:1;"
         offset="0.88999999"
         id="stop57" /></linearGradient><linearGradient
       xlink:href="#linearGradient75"
       id="linearGradient21"
       gradientUnits="userSpaceOnUse"
       x1="29.234373"
       y1="66"
       x2="98.765623"
       y2="66" /><linearGradient
       xlink:href="#linearGradient57"
       id="linearGradient49"
       gradientUnits="userSpaceOnUse"
       x1="29.234373"
       y1="66"
       x2="98.765623"
       y2="66" /><linearGradient
       xlink:href="#linearGradient66"
       id="linearGradient58"
       gradientUnits="userSpaceOnUse"
       x1="29.234373"
       y1="66"
       x2="98.765623"
       y2="66" /><linearGradient
       xlink:href="#linearGradient84"
       id="linearGradient67"
       gradientUnits="userSpaceOnUse"
       x1="29.234373"
       y1="66"
       x2="98.765623"
       y2="66" /></defs><linearGradient
     id="a"
     gradientUnits="userSpaceOnUse"
     x1="11.999989"
     x2="115.999989"
     y1="64"
     y2="64"
     gradientTransform="translate(-140)"><stop
       offset="0"
       stop-color="#3d3846"
       id="stop252" /><stop
       offset="0.05"
       stop-color="#77767b"
       id="stop254" /><stop
       offset="0.1"
       stop-color="#5e5c64"
       id="stop256" /><stop
       offset="0.899999"
       stop-color="#504e56"
       id="stop258" /><stop
       offset="0.95"
       stop-color="#77767b"
       id="stop260" /><stop
       offset="1"
       stop-color="#3d3846"
       id="stop262" /></linearGradient><linearGradient
     id="b"
     gradientUnits="userSpaceOnUse"
     x1="12"
     x2="112.041023"
     y1="60"
     y2="80.988281"><stop
       offset="0.38444301"
       stop-color="#9a9996"
       id="stop267"
       style="stop-color:#ee4444;stop-opacity:1;" /><stop
       offset="0.72056699"
       stop-color="#77767b"
       id="stop269"
       style="stop-color:#ccd420;stop-opacity:1;" /></linearGradient><path
     id="path1"
     style="fill:url(#linearGradient49);fill-opacity:1;stroke-width:0.22834"
     d="m 83.03516,37.470703 c 0.14653,1.990955 -0.50995,3.216793 -0.96289,5.689453 -0.15801,0.862896 -0.53674,4.590298 0.68945,5.044922 3.48423,1.292176 7.7674,-2.327776 9.19726,-5.060547 1.52045,-2.906082 1.75854,-6.198114 1.4629,-9.49414 z" /><path
     id="path39"
     style="fill:url(#linearGradient58);fill-opacity:1;stroke-width:0.22834"
     d="m 67.160156,83.097656 -3.02539,0.28711 -1.248047,-0.386719 c 0.583666,1.633038 0.890289,3.998325 -0.958985,4.511719 -1.23007,0.341368 -2.433395,-1.161613 -3.421875,-1.666016 -1.76598,-0.901029 -3.950534,-0.961956 -5.708984,-0.04883 -1.749506,0.908573 -2.909838,-0.386564 -3.28125,1.052734 -0.118749,0.460173 -0.003,3.535104 0,4.013672 0.01352,2.193419 1.25604,4.489792 3.28125,6.050781 3.39633,2.617688 7.986382,2.089173 10.820313,-1.060547 1.291257,-1.435113 2.054553,-3.174554 2.652343,-4.984374 0.821953,-2.487705 1.371519,-5.167924 0.890625,-7.769532 z" /><path
     id="path41"
     style="fill:#002c33;fill-opacity:1;stroke-width:0.22834"
     d="m 48.443359,70.542969 c -2.425742,0.04552 -4.77586,0.515507 -6.833984,1.443359 -5.018737,2.262475 -8.499239,6.256693 -10.462891,10.984375 h 8.025391 c 0.525705,-1.441593 1.334819,-2.76887 2.503906,-3.871094 5.116248,-4.823785 15.537009,-4.0936 19.917969,1.576172 0.311801,0.403528 0.593336,0.833768 0.839844,1.28711 0.146053,0.268585 0.302109,0.616435 0.443359,1.007812 0.0032,0.0088 0.0066,0.01851 0.0098,0.02734 l 1.248047,0.386719 3.02539,-0.28711 c -0.0078,-0.04203 -0.01511,-0.08495 -0.02344,-0.126953 C 67.10006,82.785714 67.05723,82.60196 67.009797,82.417965 66.854789,81.816653 66.657639,81.235675 66.423859,80.675777 63.673325,74.088387 55.720587,70.4064 48.443359,70.542969 Z" /><path
     id="path86"
     style="fill:url(#linearGradient21);fill-opacity:1;stroke-width:0.22834"
     d="M 61.660156 16.003906 C 60.270979 16.023666 58.904175 16.118308 57.591797 16.296875 C 51.577521 17.115852 45.658829 19.057634 41.152344 23.298828 C 32.981654 30.9884 31.51896 44.717434 38.9375 53.419922 C 49.7245 66.074059 68.888298 65.97063 81.111328 76.546875 C 85.170528 80.05897 88.833984 85.252311 88.833984 90.867188 C 88.833984 96.253725 85.123028 102.07252 81.111328 105.375 C 69.495089 114.93793 49.950393 111.71114 41.939453 99.675781 L 41.939453 113.49023 C 42.39277 113.46997 42.819008 113.46739 43.207031 113.49414 C 46.517271 113.72202 49.741181 114.95406 53.025391 115.42969 C 57.637631 116.09758 62.547834 116.15795 67.183594 115.7168 C 75.622344 114.91373 84.562207 112.7877 90.929688 106.83008 C 102.02928 96.444716 100.6516 77.046323 91.09375 66.207031 C 82.51434 56.477927 67.534965 55.103197 56.679688 48.984375 C 49.576037 44.979751 43.022631 40.008961 46.119141 31.042969 C 49.123641 22.34345 60.212733 19.927999 68.095703 22.302734 C 74.552013 24.247732 81.121478 29.023773 82.767578 35.837891 C 82.914875 36.447583 82.999227 36.982538 83.035156 37.470703 L 93.421875 33.650391 C 93.16616 30.799551 92.511331 27.945931 91.939453 25.333984 C 91.624573 23.895443 92.02903 21.57902 91.34375 20.335938 C 90.09336 18.068067 84.344003 20.439311 82.251953 20.289062 C 79.402053 20.084699 76.762773 18.352597 74.033203 17.605469 C 70.215936 16.560472 65.82968 15.944599 61.660156 16.003906 z M 31.146484 82.970703 C 30.170209 85.321179 29.569063 87.853629 29.339844 90.443359 L 38.527344 90.443359 C 38.488561 90.131663 38.455891 89.815933 38.429688 89.498047 C 38.249239 87.309281 38.422938 85.024447 39.171875 82.970703 L 31.146484 82.970703 z " /><path
     id="path67"
     style="fill:url(#linearGradient67);fill-opacity:1;stroke-width:0.22834"
     d="M 41.939453,113.49023 V 99.675781 c -1.771506,-2.66145 -2.979117,-5.752497 -3.412109,-9.232422 h -9.1875 c -0.126074,1.424386 -0.139686,2.865479 -0.04102,4.304688 0.21624,3.157255 1.315676,6.117933 2.166016,9.134763 0.60213,2.13703 -0.117144,7.27257 1.566406,8.73828 2.07983,1.811 6.033918,0.99763 8.908203,0.86914 z" /><path
     d="m 57.592814,12.297155 c -6.01493,0.818827 -11.93259,2.760172 -16.43955,7.001813 -8.17069,7.689572 -9.63458,21.41782 -2.21604,30.120308 10.787,12.654137 29.95133,12.552297 42.17436,23.128542 4.0592,3.512095 7.72268,8.704542 7.72268,14.319419 0,5.386537 -3.71098,11.205321 -7.72268,14.507803 -14.41509,11.86705 -41.03951,4.0391 -42.68128,-15.876929 -0.30711,-3.725136 0.4101,-7.725878 3.24471,-10.398367 5.48038,-5.167103 17.04876,-3.960783 20.75883,2.862239 0.75581,1.389905 1.79863,4.907023 -0.506,5.546832 -1.23007,0.341368 -2.43319,-1.161565 -3.42167,-1.665968 -1.76598,-0.901029 -3.95005,-0.96131 -5.7085,-0.04818 -4.87254,2.530462 -3.84912,8.150133 0,11.116953 3.39633,2.617688 7.98504,2.089994 10.81897,-1.059725 1.29126,-1.435116 2.05506,-3.174837 2.65285,-4.984659 0.89372,-2.704914 1.46503,-5.637026 0.74028,-8.448574 -2.58663,-10.034166 -16.64323,-14.380386 -25.40052,-10.43239 -8.8863,4.005994 -12.9487,13.443736 -12.3098,22.762741 0.21624,3.157255 1.31478,6.116768 2.16512,9.133594 0.60213,2.137033 -0.1176,7.273313 1.56595,8.739023 2.40785,2.09662 7.3288,0.67543 10.17711,0.8718 3.31024,0.22788 6.5344,1.46115 9.81861,1.93678 4.61224,0.66789 9.52131,0.7284 14.15707,0.28725 8.43875,-0.80307 17.37986,-2.92937 23.74734,-8.88699 11.099596,-10.385348 9.721336,-29.784644 0.16349,-40.623936 -8.57941,-9.729104 -23.5601,-11.103482 -34.41538,-17.222304 -7.10365,-4.004624 -13.65517,-8.976039 -10.55866,-17.942031 3.0045,-8.699519 14.09268,-11.115127 21.97565,-8.740392 6.45631,1.944998 13.02497,6.721411 14.67107,13.535529 0.74804,3.096288 0.23953,6.282998 -0.32447,9.361933 -0.15801,0.862896 -0.90697,2.551241 0.31922,3.005865 3.48423,1.292176 7.76766,-2.328153 9.19752,-5.060924 2.83553,-5.419646 1.21386,-12.178733 -0.0192,-17.810507 -0.31488,-1.438541 0.09,-3.755505 -0.59528,-4.998587 -1.25039,-2.267871 -6.99976,0.104579 -9.09181,-0.04567 -2.8499,-0.204364 -5.49066,-1.937464 -8.22023,-2.684592 -5.08969,-1.393329 -11.18865,-2.022634 -16.44047,-1.307702 z"
     fill="#005a68"
     filter="url(#a)"
     id="path7"
     style="stroke-width:0.22834" /></svg>

<svg xmlns="http://www.w3.org/2000/svg" xmlns:xlink="http://www.w3.org/1999/xlink" xml:space="preserve" width="128" height="128" viewBox="0 0 128 128"><defs><linearGradient id="d"><stop offset=".03" style="stop-color:#002c33;stop-opacity:1"/><stop offset=".06" style="stop-color:#008499;stop-opacity:1"/><stop offset=".11" style="stop-color:#002c33;stop-opacity:1"/></linearGradient><linearGradient id="a"><stop offset=".31" style="stop-color:#002c33;stop-opacity:1"/><stop offset=".61" style="stop-color:#008499;stop-opacity:1"/><stop offset=".81" style="stop-color:#002c33;stop-opacity:1"/><stop offset=".86" style="stop-color:#002c33;stop-opacity:1"/><stop offset=".96" style="stop-color:#008499;stop-opacity:1"/><stop offset="1" style="stop-color:#002c33;stop-opacity:1"/></linearGradient><linearGradient id="c"><stop offset=".28" style="stop-color:#002c33;stop-opacity:1"/><stop offset=".38" style="stop-color:#008499;stop-opacity:1"/><stop offset=".51" style="stop-color:#002c33;stop-opacity:1"/></linearGradient><linearGradient id="b"><stop offset=".74" style="stop-color:#002c33;stop-opacity:1"/><stop offset=".78" style="stop-color:#008499;stop-opacity:1"/><stop offset=".89" style="stop-color:#002c33;stop-opacity:1"/></linearGradient><linearGradient xlink:href="#a" id="g" x1="29.234" x2="98.766" y1="66" y2="66" gradientUnits="userSpaceOnUse"/><linearGradient xlink:href="#b" id="e" x1="29.234" x2="98.766" y1="66" y2="66" gradientUnits="userSpaceOnUse"/><linearGradient xlink:href="#c" id="f" x1="29.234" x2="98.766" y1="66" y2="66" gradientUnits="userSpaceOnUse"/><linearGradient xlink:href="#d" id="h" x1="29.234" x2="98.766" y1="66" y2="66" gradientUnits="userSpaceOnUse"/></defs><linearGradient id="i" x1="12" x2="116" y1="64" y2="64" gradientTransform="translate(-140)" gradientUnits="userSpaceOnUse"><stop offset="0" stop-color="#3d3846"/><stop offset=".05" stop-color="#77767b"/><stop offset=".1" stop-color="#5e5c64"/><stop offset=".9" stop-color="#504e56"/><stop offset=".95" stop-color="#77767b"/><stop offset="1" stop-color="#3d3846"/></linearGradient><path d="M83.035 37.47c.147 1.992-.51 3.217-.963 5.69-.158.863-.536 4.59.69 5.045 3.484 1.292 7.767-2.328 9.197-5.06 1.52-2.907 1.759-6.199 1.463-9.495z" style="fill:url(#e);fill-opacity:1;stroke-width:.22834"/><path d="m67.16 83.098-3.025.287-1.248-.387c.583 1.633.89 3.998-.96 4.512-1.23.341-2.433-1.162-3.421-1.666-1.766-.901-3.95-.962-5.71-.05-1.749.91-2.909-.386-3.28 1.054-.12.46-.003 3.535 0 4.013.013 2.194 1.256 4.49 3.28 6.051 3.397 2.618 7.987 2.09 10.821-1.06 1.291-1.436 2.055-3.175 2.653-4.985.821-2.488 1.371-5.168.89-7.77" style="fill:url(#f);fill-opacity:1;stroke-width:.22834"/><path d="M48.443 70.543c-2.425.045-4.776.515-6.834 1.443-5.018 2.263-8.499 6.257-10.463 10.985h8.026c.526-1.442 1.335-2.77 2.504-3.871 5.116-4.824 15.537-4.094 19.918 1.576q.469.606.84 1.287c.146.268.302.616.443 1.008l.01.027 1.248.387 3.025-.287-.023-.127a10 10 0 0 0-.127-.553 13 13 0 0 0-.586-1.742c-2.75-6.588-10.703-10.27-17.98-10.133" style="fill:#002c33;fill-opacity:1;stroke-width:.22834"/><path d="M61.66 16.004a34 34 0 0 0-4.068.293c-6.014.819-11.933 2.76-16.44 7.002-8.17 7.69-9.633 21.418-2.215 30.12 10.788 12.655 29.951 12.552 42.174 23.128 4.06 3.512 7.723 8.705 7.723 14.32 0 5.387-3.711 11.206-7.723 14.508-11.616 9.563-31.16 6.336-39.172-5.7v13.815c.454-.02.88-.023 1.268.004 3.31.228 6.534 1.46 9.818 1.936 4.613.668 9.523.728 14.159.287 8.438-.803 17.378-2.93 23.746-8.887 11.1-10.385 9.722-29.784.164-40.623-8.58-9.73-23.559-11.104-34.414-17.223-7.104-4.004-13.657-8.975-10.56-17.941 3.004-8.7 14.093-11.115 21.976-8.74 6.456 1.945 13.025 6.72 14.672 13.535.147.61.231 1.145.267 1.633l10.387-3.82c-.256-2.851-.91-5.705-1.483-8.317-.314-1.439.09-3.755-.595-4.998-1.25-2.268-7 .103-9.092-.047-2.85-.204-5.49-1.936-8.219-2.684-3.817-1.045-8.203-1.66-12.373-1.601M31.146 82.97c-.976 2.35-1.577 4.883-1.806 7.472h9.187a23 23 0 0 1-.097-.945c-.18-2.189-.007-4.474.742-6.527z" style="fill:url(#g);fill-opacity:1;stroke-width:.22834"/><path d="M41.94 113.49V99.676a21.26 21.26 0 0 1-3.413-9.233H29.34a27.5 27.5 0 0 0-.041 4.305c.216 3.157 1.316 6.118 2.166 9.135.602 2.137-.117 7.272 1.566 8.738 2.08 1.811 6.034.998 8.908.87" style="fill:url(#h);fill-opacity:1;stroke-width:.22834"/><path fill="#005a68" d="M57.593 12.297c-6.015.819-11.933 2.76-16.44 7.002-8.17 7.69-9.634 21.418-2.216 30.12C49.724 62.073 68.89 61.972 81.112 72.548c4.059 3.512 7.722 8.704 7.722 14.32 0 5.386-3.71 11.205-7.722 14.507-14.416 11.867-41.04 4.04-42.682-15.877-.307-3.725.41-7.726 3.245-10.398 5.48-5.167 17.049-3.961 20.759 2.862.756 1.39 1.798 4.907-.506 5.547-1.23.341-2.433-1.162-3.422-1.666-1.766-.901-3.95-.961-5.708-.048-4.873 2.53-3.85 8.15 0 11.117 3.396 2.617 7.985 2.09 10.819-1.06 1.29-1.435 2.055-3.175 2.652-4.985.894-2.705 1.466-5.637.74-8.448-2.586-10.035-16.642-14.38-25.4-10.433C32.723 71.992 28.661 81.43 29.3 90.75c.217 3.157 1.315 6.117 2.166 9.134.602 2.137-.118 7.273 1.566 8.739 2.407 2.096 7.328.675 10.177.871 3.31.228 6.534 1.462 9.818 1.937 4.612.668 9.522.729 14.157.287 8.44-.803 17.38-2.929 23.748-8.887 11.1-10.385 9.721-29.784.163-40.623-8.58-9.73-23.56-11.104-34.415-17.223-7.104-4.004-13.655-8.976-10.559-17.942 3.005-8.7 14.093-11.115 21.976-8.74 6.456 1.945 13.025 6.721 14.67 13.535.749 3.097.24 6.283-.324 9.362-.158.863-.907 2.552.32 3.006 3.484 1.292 7.767-2.328 9.197-5.06 2.836-5.42 1.214-12.18-.02-17.811-.314-1.439.09-3.756-.594-4.999-1.25-2.268-7 .105-9.092-.046-2.85-.204-5.49-1.937-8.22-2.684-5.09-1.393-11.19-2.023-16.44-1.308z" filter="url(#i)" style="stroke-width:.22834"/></svg>
